flaticon/emoticons/wink-1.svg

<svg xmlns="http://www.w3.org/2000/svg" width="32" height="23pt" viewBox="0 0 24 23">
    <path d="M7.90625 5.886719C6.496094 5.886719 5.347656 6.984375 5.347656 8.335938 5.347656 8.609375 5.578125 8.828125 5.859375 8.828125 6.140625 8.828125 6.371094 8.609375 6.371094 8.335938 6.371094 7.527344 7.058594 6.867188 7.90625 6.867188 8.753906 6.867188 9.441406 7.527344 9.441406 8.335938 9.441406 8.609375 9.671875 8.828125 9.953125 8.828125 10.234375 8.828125 10.464844 8.609375 10.464844 8.335938 10.464844 6.984375 9.316406 5.886719 7.90625 5.886719zM17.628906 7.847656C17.628906 8.660156 16.941406 9.316406 16.09375 9.316406 15.246094 9.316406 14.558594 8.660156 14.558594 7.847656 14.558594 7.035156 15.246094 6.375 16.09375 6.375 16.941406 6.375 17.628906 7.035156 17.628906 7.847656zM17.628906 7.847656"/>
    <path d="M 16.09375 4.414062 C 14.117188 4.414062 12.511719 5.953125 12.511719 7.847656 C 12.511719 9.738281 14.117188 11.28125 16.09375 11.28125 C 18.070312 11.28125 19.675781 9.738281 19.675781 7.847656 C 19.675781 5.953125 18.070312 4.414062 16.09375 4.414062 Z M 16.09375 10.296875 C 14.683594 10.296875 13.535156 9.199219 13.535156 7.847656 C 13.535156 6.496094 14.683594 5.394531 16.09375 5.394531 C 17.503906 5.394531 18.652344 6.496094 18.652344 7.847656 C 18.652344 9.199219 17.503906 10.296875 16.09375 10.296875 Z M 16.09375 10.296875"/>
    <path d="M 23.257812 10.789062 C 23.257812 4.839844 18.207031 0 12 0 C 5.792969 0 0.742188 4.839844 0.742188 10.789062 C 0.742188 15.855469 4.445312 20.234375 9.582031 21.3125 C 9.917969 22.289062 10.871094 23 12 23 L 12.511719 23 C 13.644531 23 14.597656 22.285156 14.933594 21.304688 C 19.847656 20.246094 23.257812 15.972656 23.257812 10.789062 Z M 11.65625 14.710938 C 11.828125 15.578125 12 18.316406 12 19.125 C 12 19.398438 12.230469 19.617188 12.511719 19.617188 C 12.792969 19.617188 13.023438 19.398438 13.023438 19.125 C 13.023438 18.671875 12.960938 17.414062 12.871094 16.328125 C 12.8125 15.617188 12.757812 15.09375 12.695312 14.710938 L 14.027344 14.710938 C 14.03125 14.71875 14.039062 14.726562 14.046875 14.734375 L 14.046875 20.277344 C 14.046875 21.171875 13.289062 21.898438 12.355469 21.898438 L 12.15625 21.898438 C 11.222656 21.898438 10.464844 21.171875 10.464844 20.277344 L 10.464844 14.710938 Z M 15.070312 14.710938 L 17.097656 14.710938 C 16.976562 16.285156 16.257812 17.539062 15.070312 18.296875 Z M 9.441406 18.460938 C 8.011719 17.675781 7.070312 16.292969 6.90625 14.710938 L 9.441406 14.710938 Z M 15.070312 20.265625 L 15.070312 19.433594 C 17 18.5 18.140625 16.578125 18.140625 14.222656 C 18.140625 13.949219 17.910156 13.730469 17.628906 13.730469 L 6.371094 13.730469 C 6.089844 13.730469 5.859375 13.949219 5.859375 14.222656 C 5.859375 16.546875 7.253906 18.605469 9.441406 19.5625 L 9.441406 20.273438 C 4.960938 19.167969 1.765625 15.277344 1.765625 10.789062 C 1.765625 5.378906 6.355469 0.980469 12 0.980469 C 17.644531 0.980469 22.234375 5.378906 22.234375 10.789062 C 22.234375 15.453125 19.382812 19.179688 15.070312 20.265625 Z M 15.070312 20.265625"/>
</svg>

<svg xmlns="http://www.w3.org/2000/svg" width="32" height="23pt" viewBox="0 0 24 23">
    <path d="M7.906 5.887c-1.41 0-2.558 1.097-2.558 2.449 0 .273.23.492.511.492a.502.502 0 0 0 .512-.492c0-.809.688-1.469 1.535-1.469.848 0 1.535.66 1.535 1.469 0 .273.23.492.512.492a.502.502 0 0 0 .512-.492c0-1.352-1.149-2.45-2.559-2.45zm0 0M17.629 7.848c0 .812-.688 1.468-1.535 1.468-.848 0-1.535-.656-1.535-1.468 0-.813.687-1.473 1.535-1.473.847 0 1.535.66 1.535 1.473zm0 0"/>
    <path d="M16.094 4.414c-1.977 0-3.582 1.54-3.582 3.434 0 1.89 1.605 3.433 3.582 3.433 1.976 0 3.582-1.543 3.582-3.433 0-1.895-1.606-3.434-3.582-3.434zm0 5.883c-1.41 0-2.559-1.098-2.559-2.45 0-1.35 1.149-2.452 2.559-2.452 1.41 0 2.558 1.101 2.558 2.453 0 1.351-1.148 2.449-2.558 2.449zm0 0"/>
    <path d="M23.258 10.79C23.258 4.84 18.207 0 12 0 5.793 0 .742 4.84.742 10.79c0 5.065 3.703 9.444 8.84 10.523C9.918 22.288 10.872 23 12 23h.512c1.133 0 2.086-.715 2.422-1.695 4.914-1.059 8.324-5.332 8.324-10.516zm-11.602 3.92c.172.868.344 3.606.344 4.415 0 .273.23.492.512.492a.502.502 0 0 0 .511-.492c0-.453-.062-1.71-.152-2.797a21.923 21.923 0 0 0-.176-1.617h1.332a.104.104 0 0 0 .02.023v5.543c0 .895-.758 1.621-1.692 1.621h-.199c-.933 0-1.691-.726-1.691-1.62V14.71zm3.414 0h2.028c-.121 1.575-.84 2.83-2.028 3.587zm-5.629 3.75c-1.43-.784-2.37-2.167-2.535-3.75h2.535zm5.63 1.806v-.832c1.929-.934 3.07-2.856 3.07-5.211a.502.502 0 0 0-.512-.493H6.37a.502.502 0 0 0-.512.493c0 2.324 1.395 4.382 3.582 5.34v.71c-4.48-1.105-7.675-4.996-7.675-9.484C1.766 5.38 6.356.98 12 .98c5.645 0 10.234 4.399 10.234 9.81 0 4.663-2.851 8.39-7.164 9.476zm0 0"/>
</svg>
